X: 12
T: Jump At The Sun
R: jig
M: 6/8
L: 1/8
K: Gmin
|: GBd ^c2 d | GBd ^c2 d | gdd gdd | dcB A3 |
GBd ^c2 d | GBd ^c2 d | gdd edc | BcA G3 :|
|: g2 g bag | add c’ba | bag bag | add e2 d |
g2 g bag | add c’ba | gdd edc | BcA G3 :|


Tune 736	Setting 736

